svg/ban.svg

<?xml version="1.0" encoding="UTF-8" standalone="no"?>
<svg
   width="8"
   height="8"
   viewBox="0 0 8 8"
   version="1.1"
   id="svg1"
   sodipodi:docname="ban.svg"
   inkscape:version="1.3 (0e150ed6c4, 2023-07-21)"
   xmlns:inkscape="http://www.inkscape.org/namespaces/inkscape"
   xmlns:sodipodi="http://sodipodi.sourceforge.net/DTD/sodipodi-0.dtd"
   xmlns="http://www.w3.org/2000/svg"
   xmlns:svg="http://www.w3.org/2000/svg">
  <defs
     id="defs1" />
  <sodipodi:namedview
     id="namedview1"
     pagecolor="#505050"
     bordercolor="#eeeeee"
     borderopacity="1"
     inkscape:showpageshadow="0"
     inkscape:pageopacity="0"
     inkscape:pagecheckerboard="0"
     inkscape:deskcolor="#505050"
     showgrid="false"
     inkscape:zoom="94.88"
     inkscape:cx="3.9997892"
     inkscape:cy="3.9997892"
     inkscape:window-width="1254"
     inkscape:window-height="1041"
     inkscape:window-x="1297"
     inkscape:window-y="0"
     inkscape:window-maximized="0"
     inkscape:current-layer="svg1" />
  <rect
     style="fill:#f6e04e;fill-rule:evenodd;stroke:#f6e04e;stroke-width:0;stroke-dasharray:none;stroke-opacity:0"
     id="rect1"
     width="7.9999957"
     height="7.9999967"
     x="2.1457672e-06"
     y="1.6689301e-06" />
  <path
     style="fill:#ff1161;stroke:#11a1ff;stroke-width:0.0987655;stroke-dasharray:none"
     d="M 4,0.04938271 C 1.8271605,0.04938271 0.04938271,1.8271605 0.04938271,4 0.04938271,6.1728395 1.8271605,7.9506173 4,7.9506173 6.1728395,7.9506173 7.9506173,6.1728395 7.9506173,4 7.9506173,1.8271605 6.1728395,0.04938271 4,0.04938271 Z M 4,1.037037 c 0.6518519,0 1.2444444,0.2074074 1.7283951,0.5530864 L 1.5901234,5.7283951 C 1.2444444,5.2444444 1.037037,4.6518519 1.037037,4 1.037037,2.3604938 2.3604938,1.037037 4,1.037037 Z M 6.4098766,2.2716049 C 6.7555556,2.7555556 6.962963,3.3481481 6.962963,4 6.962963,5.6395062 5.6395062,6.9629629 4,6.9629629 c -0.6518519,0 -1.2444444,-0.2074073 -1.7283951,-0.5530863 z"
     id="path1" />
</svg>

<svg xmlns="http://www.w3.org/2000/svg" width="8" height="8" viewBox="0 0 8 8">
  <path d="M4 0c-2.2 0-4 1.8-4 4s1.8 4 4 4 4-1.8 4-4-1.8-4-4-4zm0 1c.66 0 1.26.21 1.75.56l-4.19 4.19c-.35-.49-.56-1.09-.56-1.75 0-1.66 1.34-3 3-3zm2.44 1.25c.35.49.56 1.09.56 1.75 0 1.66-1.34 3-3 3-.66 0-1.26-.21-1.75-.56l4.19-4.19z" />
</svg>
